pialara/static/img/microfono.svg

<?xml version="1.0" standalone="no"?>
<!DOCTYPE svg PUBLIC "-//W3C//DTD SVG 20010904//EN"
 "http://www.w3.org/TR/2001/REC-SVG-20010904/DTD/svg10.dtd">
<svg version="1.0" xmlns="http://www.w3.org/2000/svg"
 width="980.000000pt" height="980.000000pt" viewBox="0 0 980.000000 980.000000"
 preserveAspectRatio="xMidYMid meet">

<g transform="translate(0.000000,980.000000) scale(0.100000,-0.100000)"
fill="#000000" stroke="none">
<path d="M4783 6326 c-192 -37 -344 -118 -474 -253 -119 -122 -197 -267 -229
-424 -18 -87 -20 -139 -20 -681 l0 -588 870 0 870 0 0 80 0 80 -338 0 c-370 0
-366 -1 -397 60 -19 36 -19 63 0 99 29 58 50 61 409 61 l326 0 0 115 0 115
-338 0 c-371 0 -366 -1 -398 62 -22 42 -11 90 27 122 l31 26 339 0 339 0 0
115 0 115 -341 0 -341 0 -34 34 c-39 39 -44 77 -18 127 28 56 51 59 399 59
255 0 315 3 315 13 0 26 -49 157 -80 216 -48 89 -152 214 -228 271 -88 67
-228 135 -327 160 -104 27 -268 34 -362 16z"/>
<path d="M3663 4093 c4 -155 10 -250 21 -296 115 -494 480 -866 959 -977 l97
-22 0 -139 0 -139 -255 0 -255 0 0 -110 0 -110 700 0 700 0 0 110 0 110 -255
0 -255 0 0 140 0 139 38 6 c272 46 557 210 739 427 140 168 213 308 270 523
24 91 26 121 31 333 l4 232 -140 0 -140 0 -4 -222 c-5 -205 -7 -230 -32 -311
-65 -216 -214 -425 -389 -545 -72 -50 -197 -109 -293 -139 -83 -25 -101 -27
-269 -27 -206 0 -277 14 -422 83 -269 129 -451 344 -539 636 -25 83 -27 108
-32 308 l-4 217 -140 0 -140 0 5 -227z"/>
<path d="M4063 4058 c23 -398 300 -720 691 -804 93 -20 261 -20 359 1 389 81
687 441 687 831 l0 74 -872 0 -871 0 6 -102z"/>
</g>
</svg>

<?xml version="1.0" encoding="UTF-8" standalone="no" ?>
<!DOCTYPE svg PUBLIC "-//W3C//DTD SVG 1.1//EN" "http://www.w3.org/Graphics/SVG/1.1/DTD/svg11.dtd">
<svg xmlns="http://www.w3.org/2000/svg" xmlns:xlink="http://www.w3.org/1999/xlink" version="1.1" width="1080" height="1080" viewBox="0 0 1080 1080" xml:space="preserve">
<rect x="0" y="0" width="100%" height="100%" fill="transparent"></rect>
<g transform="matrix(1 0 0 1 540 540)" id="e1e10c61-b699-4128-b188-77e1d542bf74"  >
<rect style="stroke: none; stroke-width: 1; stroke-dasharray: none; stroke-linecap: butt; stroke-dashoffset: 0; stroke-linejoin: miter; stroke-miterlimit: 4; fill: rgb(255,255,255); fill-rule: nonzero; opacity: 1; visibility: hidden;" vector-effect="non-scaling-stroke"  x="-540" y="-540" rx="0" ry="0" width="1080" height="1080" />
</g>
<g transform="matrix(1 0 0 1 540 540)" id="551fb03a-60bb-449f-afb4-94a1ba0194d4"  >
</g>
<g transform="matrix(1 0 0 1 540 540)"  >
<g style="" vector-effect="non-scaling-stroke"   >
		<g transform="matrix(1 0 0 1 0 0)"  >
<rect style="stroke: none; stroke-width: 1; stroke-dasharray: none; stroke-linecap: butt; stroke-dashoffset: 0; stroke-linejoin: miter; stroke-miterlimit: 4; fill: rgb(255,255,255); fill-rule: nonzero; opacity: 1; visibility: hidden;" vector-effect="non-scaling-stroke"  x="-540" y="-540" rx="0" ry="0" width="1080" height="1080" />
</g>
		<g transform="matrix(0.13 0 0 -0.13 0 -138.67)"  >
<path style="stroke: none; stroke-width: 1; stroke-dasharray: none; stroke-linecap: butt; stroke-dashoffset: 0; stroke-linejoin: miter; stroke-miterlimit: 4; fill: rgb(0,0,0); fill-rule: nonzero; opacity: 1;" vector-effect="non-scaling-stroke"  transform=" translate(-4930, -5357.98)" d="M 4783 6326 C 4591 6289 4439 6208 4309 6073 C 4190 5951 4112 5806 4080 5649 C 4062 5562 4060 5510 4060 4968 L 4060 4380 L 4930 4380 L 5800 4380 L 5800 4460 L 5800 4540 L 5462 4540 C 5092 4540 5096 4539 5065 4600 C 5046 4636 5046 4663 5065 4699 C 5094 4757 5115 4760 5474 4760 L 5800 4760 L 5800 4875 L 5800 4990 L 5462 4990 C 5091 4990 5096 4989 5064 5052 C 5042 5094 5053 5142 5091 5174 L 5122 5200 L 5461 5200 L 5800 5200 L 5800 5315 L 5800 5430 L 5459 5430 L 5118 5430 L 5084 5464 C 5045 5503 5040 5541 5066 5591 C 5094 5647 5117 5650 5465 5650 C 5720 5650 5780 5653 5780 5663 C 5780 5689 5731 5820 5700 5879 C 5652 5968 5548 6093 5472 6150 C 5384 6217 5244 6285 5145 6310 C 5041 6337 4877 6344 4783 6326 z" stroke-linecap="round" />
</g>
		<g transform="matrix(0.13 0 0 -0.13 0 134.4)"  >
<path style="stroke: none; stroke-width: 1; stroke-dasharray: none; stroke-linecap: butt; stroke-dashoffset: 0; stroke-linejoin: miter; stroke-miterlimit: 4; fill: rgb(0,0,0); fill-rule: nonzero; opacity: 1;" vector-effect="non-scaling-stroke"  transform=" translate(-4930, -3310)" d="M 3663 4093 C 3667 3938 3673 3843 3684 3797 C 3799 3303 4164 2931 4643 2820 L 4740 2798 L 4740 2659 L 4740 2520 L 4485 2520 L 4230 2520 L 4230 2410 L 4230 2300 L 4930 2300 L 5630 2300 L 5630 2410 L 5630 2520 L 5375 2520 L 5120 2520 L 5120 2660 L 5120 2799 L 5158 2805 C 5430 2851 5715 3015 5897 3232 C 6037 3400 6110 3540 6167 3755 C 6191 3846 6193 3876 6198 4088 L 6202 4320 L 6062 4320 L 5922 4320 L 5918 4098 C 5913 3893 5911 3868 5886 3787 C 5821 3571 5672 3362 5497 3242 C 5425 3192 5300 3133 5204 3103 C 5121 3078 5103 3076 4935 3076 C 4729 3076 4658 3090 4513 3159 C 4244 3288 4062 3503 3974 3795 C 3949 3878 3947 3903 3942 4103 L 3938 4320 L 3798 4320 L 3658 4320 L 3663 4093 z" stroke-linecap="round" />
</g>
		<g transform="matrix(0.13 0 0 -0.13 -0.2 82.46)"  >
<path style="stroke: none; stroke-width: 1; stroke-dasharray: none; stroke-linecap: butt; stroke-dashoffset: 0; stroke-linejoin: miter; stroke-miterlimit: 4; fill: rgb(0,0,0); fill-rule: nonzero; opacity: 1;" vector-effect="non-scaling-stroke"  transform=" translate(-4928.5, -3699.56)" d="M 4063 4058 C 4086 3660 4363 3338 4754 3254 C 4847 3234 5015 3234 5113 3255 C 5502 3336 5800 3696 5800 4086 L 5800 4160 L 4928 4160 L 4057 4160 L 4063 4058 z" stroke-linecap="round" />
</g>
</g>
</g>
</svg>
